src/assets/logos/pure.svg

<svg width="108" height="44" xmlns="http://www.w3.org/2000/svg"><g fill="#EFECE6" fill-rule="evenodd"><path d="M8.137 0H0v30h4.105V19.55a261.48 261.48 0 0 0 4.802-1.731C16.762 14.759 19 11.802 19 6.719 19.006 3.143 16.363 0 8.137 0zm-.044 17.163c-.537.249-3.23 1.38-3.983 1.205V.662h2.582c4.642 0 6.974 1.871 7.7 6.548.62 4.032-2.222 8.064-6.299 9.953z" fill-rule="nonzero"/><path d="M106.845 41.18l-.443-.146c-.429-.146-.691-.354-.691-.725 0-.466.434-.646.832-.646.504 0 .978.23 1.316.584v-.826c-.162-.146-.63-.421-1.316-.421-.797 0-1.523.41-1.523 1.326 0 .837.459 1.13 1.15 1.365l.398.135c.353.118.746.326.746.77 0 .438-.307.747-.907.747-.56 0-1.064-.287-1.407-.691v.837c.171.168.67.511 1.427.511.998 0 1.573-.646 1.573-1.433-.005-.792-.464-1.157-1.155-1.387z"/><path d="M20 44L23 44 23 43.330254 20.7034483 43.330254 20.7034483 41.6039261 23 41.6039261 23 40.9745958 20.7034483 40.9745958 20.7034483 39.669746 23 39.669746 23 39 20 39z"/><path d="M32 44L35 44 35 43.330254 32.7034483 43.330254 32.7034483 41.6039261 35 41.6039261 35 40.9745958 32.7034483 40.9745958 32.7034483 39.669746 35 39.669746 35 39 32 39z"/><path d="M108 25.917h-.083c-3.883 2.51-6.315 3.054-9.94 3.054h-3.714V15.025h2.069c4.753 0 6.524.668 8.769 1.335v-3.5c-2.245.667-4.016 1.334-8.77 1.334h-2.068V.973h3.505c3.63 0 5.848.712 9.39 2.816h.083L106.64 0H90v30h17.065l.935-4.083z"/><path d="M0.739130435 39L0 39 0 44 3 44 3 43.330254 0.739130435 43.330254z"/><path d="M12.7083333 39.669746L14.953125 39.669746 14.953125 39 12 39 12 44 12.7083333 44 12.7083333 41.7944573 15 41.7944573 15 41.1535797 12.7083333 41.1535797z"/><path d="M50 18.772V0h-4.247v18.85c0 6.61-2.152 10.66-7.253 10.66s-7.253-4.056-7.253-10.66V0H27v18.772C27 25.866 30.045 30 38.5 30S50 25.866 50 18.772z"/><path d="M7 39H8V44H7z"/><path d="M48.396 39H47v5h.629v-1.64h.767c1.003 0 1.604-.612 1.604-1.674C50 39.583 49.431 39 48.396 39zm0 2.725h-.767v-2.078h.767c.606 0 .975.317.975 1.039 0 .727-.346 1.04-.975 1.04z" fill-rule="nonzero"/><path d="M69 39H70V44H69z"/><path d="M74 44L77 44 77 43.330254 74.7046632 43.330254 74.7046632 41.6039261 77 41.6039261 77 40.9745958 74.7046632 40.9745958 74.7046632 39.669746 77 39.669746 77 39 74 39z"/><path d="M64.986 40.478c0-.947-.593-1.478-1.517-1.478H62v5h.645v-2.02h.843l.787 2.02H65l-.9-2.16c.336-.092.886-.455.886-1.362zm-1.512.855h-.825v-1.686h.82c.531 0 .896.26.896.837-.005.71-.455.849-.891.849z" fill-rule="nonzero"/><path d="M85.2082111 42.7413395L82.7038123 39 82 39 82 44 82.797654 44 82.797654 40.3452656 85.2258065 44 86 44 86 39 85.2082111 39z"/><path d="M54 44L57 44 57 43.330254 54.7046632 43.330254 54.7046632 41.6039261 57 41.6039261 57 40.9745958 54.7046632 40.9745958 54.7046632 39.669746 57 39.669746 57 39 54 39z"/><path d="M73.388 15.919c4.63-2.471 6.083-5.169 6.083-9.206C79.471 3.144 76.764 0 68.331 0H60v30h4.205V19.544a272.22 272.22 0 0 0 4.92-1.73l.358-.136L78.807 30H84L73.388 15.919zm-5.102 1.238c-.55.25-3.309 1.38-4.08 1.205V.656h2.644c4.756 0 7.145 1.872 7.888 6.549.636 4.032-2.275 8.064-6.452 9.952z" fill-rule="nonzero"/><path d="M90 41.5c0 1.511.732 2.5 1.943 2.5.524 0 .89-.202 1.012-.303l.004-.764c-.339.331-.628.41-1.012.41-.786 0-1.31-.77-1.31-1.849 0-1.185.52-1.837 1.26-1.837.48 0 .877.287 1.103.528V39.4A1.745 1.745 0 0 0 91.88 39c-1.144-.006-1.88.978-1.88 2.5z"/><path d="M97 44L100 44 100 43.330254 97.7046632 43.330254 97.7046632 41.6039261 100 41.6039261 100 40.9745958 97.7046632 40.9745958 97.7046632 39.669746 100 39.669746 100 39 97 39z"/><path d="M41.9237057 39L41.0517711 39 40 40.8879908 38.9645777 39 38.0926431 39 39.5476839 41.4595843 38 44 38.8773842 44 40 42.0600462 41.1280654 44 42 44 40.4632153 41.4595843z"/></g></svg>

<svg width="108px" height="44px" viewBox="0 0 108 44" version="1.1" xmlns="http://www.w3.org/2000/svg" xmlns:xlink="http://www.w3.org/1999/xlink">

<title>Pure_Master_logo-08</title>
<desc>Created with Sketch.</desc>
<g id="Page-2" stroke="none" stroke-width="1" fill="none" fill-rule="evenodd">
<g id="Awards" transform="translate(-271.000000, -3803.000000)" fill="#EFECE6">
<g id="Group" transform="translate(0.000000, 3702.000000)">
<g id="Pure_Master_logo-08" transform="translate(271.000000, 101.000000)">
<path d="M8.13731406,0 L0,0 L0,30 L4.10466285,30 L4.10466285,19.5494816 C4.90786948,19.2780396 8.35888831,18.0339303 8.90728456,17.8190386 C16.7620915,14.7596607 18.9999913,11.8020735 18.9999913,6.71819039 C19.0055307,3.14420358 16.3632578,0 8.13731406,0 Z M8.09299921,17.1630537 C7.55568168,17.4118756 4.86355463,18.5428841 4.1102022,18.3675778 L4.1102022,0.661639962 L6.69154213,0.661639962 C11.3335225,0.661639962 13.6655914,2.533459 14.3912471,7.21017908 C15.0116549,11.2422243 12.1699653,15.2742696 8.09299921,17.1630537 Z" id="Shape" fill-rule="nonzero"></path>
<path d="M106.845378,41.1797753 L106.401681,41.0337079 C105.973109,40.8876404 105.710924,40.6797753 105.710924,40.3089888 C105.710924,39.8426966 106.144538,39.6629213 106.542857,39.6629213 C107.047059,39.6629213 107.521008,39.8932584 107.858824,40.247191 L107.858824,39.4213483 C107.697479,39.2752809 107.228571,39 106.542857,39 C105.746218,39 105.020168,39.4101124 105.020168,40.3258427 C105.020168,41.1629213 105.478992,41.4550562 106.169748,41.6910112 L106.568067,41.8258427 C106.921008,41.9438202 107.314286,42.1516854 107.314286,42.5955056 C107.314286,43.0337079 107.006723,43.3426966 106.406723,43.3426966 C105.847059,43.3426966 105.342857,43.0561798 105,42.6516854 L105,43.488764 C105.171429,43.6573034 105.670588,44 106.426891,44 C107.42521,44 108,43.3539326 108,42.5674157 C107.994958,41.7752809 107.536134,41.4101124 106.845378,41.1797753 Z" id="Path"></path>
<polygon id="Path" points="20 44 23 44 23 43.330254 20.7034483 43.330254 20.7034483 41.6039261 23 41.6039261 23 40.9745958 20.7034483 40.9745958 20.7034483 39.669746 23 39.669746 23 39 20 39"></polygon>
<polygon id="Path" points="32 44 35 44 35 43.330254 32.7034483 43.330254 32.7034483 41.6039261 35 41.6039261 35 40.9745958 32.7034483 40.9745958 32.7034483 39.669746 35 39.669746 35 39 32 39"></polygon>
<path d="M108,25.9170594 L107.917482,25.9170594 C104.033619,28.4278982 101.602078,28.9707823 97.9767726,28.9707823 L94.2634474,28.9707823 L94.2634474,15.0254477 L96.3319071,15.0254477 C101.084963,15.0254477 102.856357,15.6927427 105.100856,16.3600377 L105.100856,12.8595664 C102.856357,13.5268615 101.084963,14.1941565 96.3319071,14.1941565 L94.2634474,14.1941565 L94.2634474,0.972667295 L97.7677262,0.972667295 C101.398533,0.972667295 103.615526,1.68520264 107.158313,3.78887842 L107.240831,3.78887842 L106.641198,0 L90,0 L90,30 L107.064792,30 L108,25.9170594 Z" id="Path"></path>
<polygon id="Path" points="0.739130435 39 0 39 0 44 3 44 3 43.330254 0.739130435 43.330254"></polygon>
<polygon id="Path" points="12.7083333 39.669746 14.953125 39.669746 14.953125 39 12 39 12 44 12.7083333 44 12.7083333 41.7944573 15 41.7944573 15 41.1535797 12.7083333 41.1535797"></polygon>
<path d="M50,18.7722552 L50,0 L45.752809,0 L45.752809,18.8501484 C45.752809,25.4599407 43.6011236,29.5103858 38.5,29.5103858 C33.3988764,29.5103858 31.247191,25.4543769 31.247191,18.8501484 L31.247191,0 L27,0 L27,18.7722552 C27,25.8660979 30.0449438,30 38.5,30 C46.9550562,30 50,25.8660979 50,18.7722552 Z" id="Path"></path>
<rect id="Rectangle" x="7" y="39" width="1" height="5"></rect>
<path d="M48.3959938,39 L47,39 L47,44 L47.6286595,44 L47.6286595,42.3602771 L48.3959938,42.3602771 C49.3990755,42.3602771 50,41.7482679 50,40.6859122 C50,39.5831409 49.431433,39 48.3959938,39 Z M48.3959938,41.7251732 L47.6286595,41.7251732 L47.6286595,39.6466513 L48.3959938,39.6466513 C49.0015408,39.6466513 49.3713405,39.9642032 49.3713405,40.6859122 C49.3713405,41.4133949 49.0246533,41.7251732 48.3959938,41.7251732 Z" id="Shape" fill-rule="nonzero"></path>
<rect id="Rectangle" x="69" y="39" width="1" height="5"></rect>
<polygon id="Path" points="74 44 77 44 77 43.330254 74.7046632 43.330254 74.7046632 41.6039261 77 41.6039261 77 40.9745958 74.7046632 40.9745958 74.7046632 39.669746 77 39.669746 77 39 74 39"></polygon>
<path d="M64.985782,40.47806 C64.985782,39.5311778 64.3933649,39 63.4691943,39 L62,39 L62,44 L62.6445498,44 L62.6445498,41.9792148 L63.4881517,41.9792148 L64.2748815,44 L65,44 L64.0995261,41.8406467 C64.436019,41.7482679 64.985782,41.3845266 64.985782,40.47806 Z M63.4739336,41.3325635 L62.6492891,41.3325635 L62.6492891,39.6466513 L63.4691943,39.6466513 C64,39.6466513 64.3649289,39.9064665 64.3649289,40.4838337 C64.3601896,41.1939954 63.9099526,41.3325635 63.4739336,41.3325635 Z" id="Shape" fill-rule="nonzero"></path>
<polygon id="Path" points="85.2082111 42.7413395 82.7038123 39 82 39 82 44 82.797654 44 82.797654 40.3452656 85.2258065 44 86 44 86 39 85.2082111 39"></polygon>
<polygon id="Path" points="54 44 57 44 57 43.330254 54.7046632 43.330254 54.7046632 41.6039261 57 41.6039261 57 40.9745958 54.7046632 40.9745958 54.7046632 39.669746 57 39.669746 57 39 54 39"></polygon>
<path d="M73.3875621,15.9189444 C78.0184441,13.4476909 79.4712698,10.7502356 79.4712698,6.71253534 C79.4712698,3.14420358 76.7642469,0 68.3310475,0 L60,0 L60,30 L64.2052495,30 L64.2052495,19.5438266 C65.028139,19.2723845 68.5637266,18.0282752 69.1255616,17.8133836 C69.2447387,17.7681433 69.3639158,17.7229029 69.4830929,17.6776626 L78.807283,30 L84,30 L73.3875621,15.9189444 Z M68.2856467,17.1573987 C67.735162,17.4062205 64.9770631,18.537229 64.2052495,18.3619227 L64.2052495,0.65598492 L66.8498463,0.65598492 C71.6055805,0.65598492 73.9947978,2.52780396 74.738236,7.20452403 C75.3738472,11.2365693 72.4625207,15.2686145 68.2856467,17.1573987 Z" id="Shape" fill-rule="nonzero"></path>
<path d="M90,41.500012 C90,43.0112407 90.7319277,44 91.9427711,44 C92.4668675,44 92.8328313,43.7977538 92.9548193,43.6966307 L92.9593373,42.9325894 C92.6204819,43.2640485 92.3313253,43.3426998 91.9472892,43.3426998 C91.1611446,43.3426998 90.6370482,42.5730405 90.6370482,41.494394 C90.6370482,40.3090064 91.1566265,39.6573242 91.8975904,39.6573242 C92.376506,39.6573242 92.7740964,39.9438397 93,40.1854115 L93,39.3988984 C92.751506,39.1966522 92.3810241,39.000024 91.8795181,39.000024 C90.7364458,38.994406 90,39.9775474 90,41.500012 Z" id="Path"></path>
<polygon id="Path" points="97 44 100 44 100 43.330254 97.7046632 43.330254 97.7046632 41.6039261 100 41.6039261 100 40.9745958 97.7046632 40.9745958 97.7046632 39.669746 100 39.669746 100 39 97 39"></polygon>
<polygon id="Path" points="41.9237057 39 41.0517711 39 40 40.8879908 38.9645777 39 38.0926431 39 39.5476839 41.4595843 38 44 38.8773842 44 40 42.0600462 41.1280654 44 42 44 40.4632153 41.4595843"></polygon>
</g>
</g>
</g>
</g>
</svg>
